X:1
T:Saved Through Jesus’ Blood
T:Judson Wheeler Van DeVenter, 1899
T:Saved Through Jesus’ Blood
T:Public Domain
T:Public Domain
C:Judson Wheeler Van DeVenter, 1899
Z:Public Domain
%%score 1 ( 2 3 )
L:1/8
M:4/4
K:G
V:1 treble 
V:2 bass 
V:3 bass 
V:1
 [B,D]2 | [B,G]3 [B,G] [DB][DB][CA][B,G] | [CE]2 [CG]2 [B,D]2 [B,D]2 | [DG]3 [DG] [GB]2 [GB]2 | %4
w: 1.~Some-|time we’ll stand be- fore the|judg- ment bar, The|quick, the ris- en|
w: 2.~I’ll|then re- ceive a bright and|star- ry crown, As|on- ly God can|
w: 3.~Then|we shall meet to ne- ver|part a- gain, Our|toil will then be|
 [FA]6 [CD]2 | [B,G]3 [B,G] [DB][DB][CA][B,G] | [CE]2 [CG]2 [B,D]2 [B,D]2 | %7
w: dead; The|Lord will then make known the|re- cord there; Our|
w: give; And|when I’ve been with Him ten|thou- sand years, I’ll|
w: o’er; We’ll|lay our bur- dens down at|Je- sus’ feet, And|
 [DG]3 [DG] [GB]2 [FA]2 | [DG]6 ||"^Refrain" z2 | [Bd]3 [ce] [Bd][GB][CA][B,G] | %11
w: names will all be|read.||I’ll be pre- sent when the|
w: have no less to|live.|||
w: rest for- ev- er-|more.|||
 [CE]2 [CG]2 [B,G]4 | [Bd]3 [ce] [Bd][GB][CA][B,G] | [CE]2 [CA]2 [CA]4 | %14
w: roll is called,|Pure and spot- less thro’ the|crim- son flood;|
w: |||
w: |||
 [Bd]3 [ce] [Bd][GB][CA][B,G] | [CE]2 [CG]2 [B,G]4 | [GB]3 [DG] [GB]2 [FA]2 | [DG]6 |] %18
w: I will an- swer when they|call my name;|Saved thro’ Je- sus’|blood.|
w: ||||
w: ||||
V:2
 [G,,G,]2 | [G,,D,]3 [G,,D,] [G,,G,][G,,G,][G,,G,][G,,G,] | [C,G,]2 [E,G,]2 G,2 G,2 | %3
w: ~|~ ~ ~ ~ ~ ~|~ ~ ~ ~|
 [G,B,]3 [G,B,] [G,D]2 [G,D]2 | [D,D]6 [D,F,]2 | [G,,D,]3 [G,,D,] [G,,G,][G,,G,][G,,G,][G,,G,] | %6
w: ~ ~ ~ ~|~ ~|~ ~ ~ ~ ~ ~|
 [C,G,]2 [C,G,]2 G,2 G,2 | [D,B,]3 [D,B,] [D,D]2 [D,C]2 | [G,B,]6 || [D,D]>[D,D] | %10
w: ~ ~ ~ ~|~ I’ll be pre-|sent,|I’ll be|
 [D,G,D][D,G,D][G,D][G,C] [G,D][G,D][G,,G,][G,,G,] | [C,G,]2 [C,E,]2 z2 [D,D]>[D,D] | %12
w: ~ ~ ~ ~ ~ ~ ~ I’ll|be pure ~ ~|
 [D,G,-D-]2 [G,D][G,C] [G,D][G,D][G,,G,][G,,G,] | [C,G,]2 [A,,G,]2 z2 [D,D]>[D,D] | %14
w: * * ~ ~ ~ ~ ~|I will an- swer,|
 [D,G,D][D,G,D][G,D][G,C] [G,D][G,D][G,,G,][G,,G,] | [C,G,]2 [C,E,]2 [G,,G,]4 | %16
w: * will * * * * * *||
 [D,D]3 [D,B,] [D,D]2 [D,C]2 | [G,B,]6 |] %18
w: ||
V:3
 x2 | x8 | x4 G,2 G,2 | x8 | x8 | x8 | x4 G,2 G,2 | x8 | x6 || x2 | x8 | x4 [G,,G,]4 | x8 | %13
w: ||~ ~||||~ ~|||||~||
 x4 [D,F,]4 | x8 | x8 | x8 | x6 |] %18
w: I|||||

